X: 1
T: Niel Gow's Lament For His Second Wife
R: waltz
M: 3/4
L: 1/8
K: Dmaj
D/B,/|A,>B,D {DC}D>ED|EFA B2d|A>FD {EF}E>DE|{DE}FDB, B,2D/B,/|
A,>B,D {DE}D>ED|EFA d2c/B/|A>FD {=C}B,2 A,|B,D>D D2:|
(3A/B/c/|\d>fd {cd}ecA|{Bc}B/A/B/c/{Bc}d B/A/G/F/E/D/|{EF}E>DE {DE}F>ED|{D}FDB, B,2 (3A/B/c/|
d>fd {cd}ecA|B/A/B/c/{Bc}d B/A/G/F/E/D/|{EF}E>DE {DE}FDB,|A,<DD [D2A,2] (3A/B/c/|
{e}d>fd ecA|B/A/B/c/{Bc}d B/A/G/F/E/D/|F/D/A/F/d/A/ B/A/G/F/E/D/|{DE}FEE E2D/B,/|
A,B,D D>ED|EFA d2c/B/|A>FD {=C}B,2A,|B,<DD [D2A,2]|]


Tune 1892	Setting 24632

